X:184
L:1/16
M:4/4
K:G
 !1!GGGG G2G2 dddd d2d2 | eeee e2e2 dddd d2d2 | cccc c2c2 BBBB B2B2 | AAAA A2A2 GGGG G2G2 | 
 dddd d2d2 !1!cccc c2c2 | !3!BBBB B2B2 AAAA A2A2 | dddd d2d2 cccc c2c2 | BBBB B2B2 AAAA A2A2 | 
 GGGG G2G2 dddd d2d2 | eeee e2e2 dddd d2d2 | cccc c2c2 BBBB B2B2 | AAAA A2A2 GGGG G2G2 ||

